X: 30025
T: Off She Goes
R: jig
M: 6/8
K: Dmajor
|:A|F2 A G2 B|ABc d2 A|F2 A G2 B|AFD E2 D|
F2 A G2 B|ABc d2 e|f2 d g2 f|edc d2:|
|:e|faf d2 f|gag e2 g|faf d2 f|ecA A2 g|
faf def|gag efg|f2 d g2 f|edc d2:|

